X:147
T:Matthew's Hornpipe
C:Jansen Wendell
M:C|
K:D
|:"D"dcdAF2dB|"G"G2ed "A"cABc|"D"dcdA"Bm"F2AF|"Em"GECE "A"Acec|
"D"dcdAF2dB|"G"G2ed "A"cAGE|"D"DFAD"G"B,2DG|"A"C2EA "D"FDD2:|
|: "D"Adfd"Em"g2ec|"D/F#"a2fd"Em/G"g2ec|"D"Adfd "G"gfed|"A"cAce az az|
"D"Adfd"Em"g2ec|"D/F#"a2fd"Em/G"b2ge|"D"a2fd "G"gfed|"A"cAGE "D"Dz Dz :|
P:Matthew's Hornpipe High Harmony
|:fefd A2fd|B2gf ecde|fefd A2dA|BGEG cege|
fefdA2fd|B2gf ecAG|FAdA  E2GB|E2Ad AFF2:|
|:dfaf b2ge|c'2af b2ge|dfaf bagf|ecea c'z c'z|
dfaf b2ge|c'2af d'2bg|d'2af  bagf|edcB Az Az:|
P:Matthew's Hornpipe Low Harmony
|:FEFD A,2FD|B,2GF ECDE|FEFD A,2DA,|B,G,G,B, CEGE|
FEFDA,2FD|B,2GF  EDCB,|A,DFA,G,2 G,B,|A,2CE DA,A,2:|
|:DFAF B2GE|c2AFB2GE|DFAF BAGF|ECEA cz cz|
DFAF B2GE|c2AFd2BG|d2AF BAGF|EDCB, A,z A,z:|
W:  Jansen Wendell. All rights reserved. Used by permission.
